.local/share/icons/Gruvbox-Plus-Dark/panel/16/pomodoro-indicator-light-07.svg

<svg xmlns="http://www.w3.org/2000/svg" width="16" height="16" version="1.1">
 <defs>
  <style id="current-color-scheme" type="text/css">
   .ColorScheme-Text { color:#ebdbb2; } .ColorScheme-Highlight { color:#458588; }
  </style>
 </defs>
 <path style="fill:currentColor" class="ColorScheme-Text" d="M 8 1 C 6.3452 1 4.8231667 1.5435764 3.625 2.5546875 L 2.2148438 1.15625 L 1.1210938 2.2441406 L 2.53125 3.6445312 C 1.5712389 4.8111978 1 6.3666667 1 8 C 1 11.888889 4.1339778 15 8 15 C 11.866333 15 15 11.888889 15 8 C 15 6.3666667 14.429305 4.8111978 13.46875 3.6445312 L 14.878906 2.2441406 L 13.785156 1.15625 L 12.375 2.5546875 C 11.177222 1.5435764 9.6551112 1 8 1 z M 8 3 C 10.761429 3 13 5.2142856 13 8 C 13 10.785714 10.761429 13 8 13 C 5.2385713 13 3 10.785714 3 8 C 3 5.2142856 5.2385713 3 8 3 z"/>
 <path style="fill:currentColor" class="ColorScheme-Text" d="M 8,8 8,4 c 0.1236173,0 0.245925,0.00561 0.3666824,0.016582 0.12587,0.011439 0.2500558,0.02871 0.372285,0.051539 0.1412378,0.026379 0.279863,0.060181 0.4154555,0.100985 0.1150405,0.034619 0.227898,0.074279 0.3383159,0.1187215 0.1497422,0.060271 0.2949974,0.1293395 0.4351258,0.2065657 0.1143454,0.063017 0.2252774,0.1314659 0.3324474,0.2049989 0.113875,0.078133 0.223503,0.1620066 0.328466,0.2512027 z"/>
</svg>

<svg width="16" height="16" version="1.1" xmlns="http://www.w3.org/2000/svg">
  <defs>
    <style id="current-color-scheme" type="text/css">.ColorScheme-Text { color:#ebdbb2; } .ColorScheme-Highlight { color:#458588; } .ColorScheme-NeutralText { color:#fe8019; } .ColorScheme-PositiveText { color:#689d6a; } .ColorScheme-NegativeText { color:#fb4934; }</style>
  </defs>
  <path class="ColorScheme-Text" d="m8 1c-1.655 0-3.177 0.5436-4.375 1.555l-1.41-1.398-1.094 1.088 1.41 1.4c-0.96 1.167-1.531 2.722-1.531 4.355 0 3.889 3.134 7 7 7s7-3.111 7-7c0-1.633-0.5707-3.189-1.531-4.355l1.41-1.4-1.094-1.088-1.41 1.398c-1.198-1.011-2.72-1.555-4.375-1.555zm0 2c2.761 0 5 2.214 5 5s-2.239 5-5 5-5-2.214-5-5 2.239-5 5-5zm0 1v4l2.588-3.049c-0.7226-0.6137-1.64-0.9508-2.588-0.9512z" fill="currentColor"/>
</svg>
